src/lib/packages/icons/src/assets/filled/home-dash-wifi.svg

<svg width="24" height="24" viewBox="0 0 24 24" fill="none" xmlns="http://www.w3.org/2000/svg">
<path fill-rule="evenodd" clip-rule="evenodd" d="M20.27 9.06205L13.588 3.56901C12.665 2.81001 11.334 2.81001 10.411 3.56901L3.72898 9.06205C3.16798 9.52305 2.90096 10.251 3.03196 10.965L4.48704 18.9471C4.70404 20.1351 5.73902 20.9991 6.94602 20.9991H17.052C18.26 20.9991 19.295 20.1351 19.511 18.9471L20.9659 10.964C21.0979 10.252 20.831 9.52305 20.27 9.06205ZM12 17.5C11.448 17.5 11 17.052 11 16.5C11 15.948 11.448 15.5 12 15.5C12.552 15.5 13 15.948 13 16.5C13 17.052 12.552 17.5 12 17.5ZM14.847 14.715C14.7 14.909 14.476 15.011 14.249 15.011C14.091 15.011 13.932 14.9611 13.796 14.8581C12.767 14.0751 11.234 14.0751 10.204 14.8581C9.87396 15.1081 9.40393 15.045 9.15293 14.715C8.90193 14.385 8.965 13.915 9.296 13.664C10.851 12.481 13.15 12.481 14.704 13.664C15.034 13.915 15.098 14.386 14.847 14.715ZM17.068 12.656C16.92 12.828 16.711 12.917 16.5 12.917C16.326 12.917 16.152 12.857 16.011 12.735C14.899 11.777 13.474 11.25 12 11.25C10.526 11.25 9.10199 11.777 7.98899 12.735C7.67599 13.005 7.20201 12.97 6.93101 12.656C6.66001 12.342 6.69699 11.8681 7.00999 11.5981C8.39499 10.4061 10.166 9.75004 11.999 9.75004C13.832 9.75004 15.603 10.4061 16.988 11.5981C17.303 11.8681 17.339 12.342 17.068 12.656Z" fill="currentColor"/>
</svg>

<svg xmlns="http://www.w3.org/2000/svg" width="24" height="24" fill="none"><path fill="currentColor" fill-rule="evenodd" d="m20.27 9.062-6.682-5.493a2.501 2.501 0 0 0-3.177 0L3.729 9.062a1.996 1.996 0 0 0-.697 1.903l1.455 7.982A2.5 2.5 0 0 0 6.946 21h10.106a2.5 2.5 0 0 0 2.459-2.052l1.455-7.983a1.993 1.993 0 0 0-.696-1.902ZM12 17.5a1 1 0 1 1 0-2 1 1 0 0 1 0 2Zm2.847-2.785a.748.748 0 0 1-1.051.143c-1.029-.783-2.562-.783-3.592 0a.75.75 0 0 1-.908-1.194c1.555-1.183 3.854-1.183 5.408 0a.75.75 0 0 1 .143 1.051Zm2.221-2.059a.747.747 0 0 1-1.057.079A6.146 6.146 0 0 0 12 11.25a6.148 6.148 0 0 0-4.011 1.485.75.75 0 0 1-.979-1.137 7.648 7.648 0 0 1 4.989-1.848c1.833 0 3.604.656 4.989 1.848.315.27.351.744.08 1.058Z" clip-rule="evenodd"/></svg>
